X: 32948
T: President Gorbachev's
R: hornpipe
M: 4/4
K: Eminor
|:(3B,^C^D|EGBG FAcA|Bege ^dfaf|gf (3efg fedf|edce ^dB (3AGF|
EGBG FAcA|Bege ^dfaf|gf (3efg fe^df|e2 E2 E2:|
|:(3gfe|d^de^d =dcAc|(3Bcd fd edBe|d^de^d =dcAc|(3Bcd fd ed (3gfe|
d^de^d =dcAc|(3Bcd fd edBg|fedc BAGF|1 G2 g2 G2:|2 E6||

